static/icons/logo.svg

<svg width="199" height="24" viewBox="0 0 199 24" fill="none" xmlns="http://www.w3.org/2000/svg">
<g filter="url(#filter0_d_144_1325)">
<path d="M3.68802 16.4357L8.05605 16.065V12.0339H10.5754C13.8344 12.0339 15.6997 13.1488 16.1669 15.3785L20.8301 14.9827C20.3028 12.7781 18.4631 11.5194 15.3125 11.2081C16.7906 10.833 17.9342 10.2044 18.7404 9.32378C19.5691 8.4194 19.9834 7.46018 19.9834 6.44611C19.9834 4.13182 19.0311 2.58995 17.1281 1.81754C15.2462 1.0466 12.8942 0.661133 10.0721 0.661133H1V1.65297H1.336C2.2762 1.65297 2.90301 1.92872 3.21641 2.47876C3.52981 3.00804 3.68802 3.83531 3.68802 4.95909V16.4357ZM8.05605 2.21486C8.81696 2.06067 9.48896 1.98358 10.0721 1.98358C11.5502 1.98358 12.7812 2.32457 13.7681 3.00804C14.7761 3.66926 15.2793 4.76043 15.2793 6.28154C15.2793 7.78041 14.8544 8.87155 14.0031 9.55503C13.1744 10.2162 12.0308 10.5469 10.5754 10.5469H8.05605V2.21486ZM14.8093 19.9686C13.8464 20.7617 12.4347 21.1591 10.5754 21.1591C9.67884 21.1591 8.83956 21.0494 8.05605 20.8285V19.5223L3.68802 19.976V22.4815H11.0801C13.9685 22.4815 16.3431 22.0516 18.2024 21.1917C19.5374 20.5601 20.3917 19.5639 20.7699 18.2044L15.8308 18.7173C15.5867 19.1992 15.2462 19.6172 14.8093 19.9686Z" fill="url(#paint0_linear_144_1325)"/>
<path d="M44.1271 5.68713C43.208 3.92287 41.9093 2.53519 40.2293 1.52111C38.5492 0.507038 36.6221 0 34.4494 0C32.2767 0 30.3391 0.507038 28.6364 1.52111C26.9564 2.53519 25.6576 3.92287 24.74 5.68713C23.8208 7.44989 23.3613 9.41134 23.3613 11.5714C23.3613 12.6789 23.4818 13.7345 23.726 14.7382L28.2251 14.3571C28.1181 13.4988 28.0654 12.5707 28.0654 11.5714C28.0654 8.35278 28.6153 5.87392 29.7123 4.13191C30.8317 2.36914 32.4108 1.48701 34.4494 1.48701C36.488 1.48701 38.067 2.36914 39.1881 4.13191C40.3076 5.87392 40.8681 8.35278 40.8681 11.5714C40.8681 12.1704 40.8485 12.7426 40.8109 13.2912L45.4441 12.8983C45.4847 12.4654 45.5044 12.0221 45.5044 11.5714C45.5044 9.41134 45.0448 7.44989 44.1271 5.68713ZM39.1881 19.0436C38.067 20.7841 36.488 21.6559 34.4494 21.6559C32.4108 21.6559 30.8317 20.7841 29.7123 19.0436C29.4003 18.5409 29.1321 17.9805 28.9091 17.3608L24.9118 17.7745C25.8173 19.3875 27.0588 20.6699 28.6364 21.6218C30.3391 22.6359 32.2767 23.1429 34.4494 23.1429C36.6221 23.1429 38.5492 22.6359 40.2293 21.6218C41.9093 20.6077 43.208 19.22 44.1271 17.4557C44.4195 16.8924 44.6666 16.3097 44.8655 15.7048L40.3709 16.1718C40.0937 17.2808 39.7004 18.2385 39.1881 19.0436Z" fill="url(#paint1_linear_144_1325)"/>
<path d="M49.7564 4.95909C49.7564 3.83531 49.5997 3.00804 49.2863 2.47876C48.9729 1.92872 48.3446 1.65297 47.4044 1.65297H47.0684V0.661133H51.1004C51.9065 0.661133 52.5228 0.793081 52.9477 1.05846C53.374 1.32236 53.677 1.76268 53.8548 2.38091C54.0341 2.97542 54.1245 3.83531 54.1245 4.95909V12.1629L49.7564 12.5335V4.95909Z" fill="url(#paint2_linear_144_1325)"/>
<path d="M65.7163 20.9931V22.4817H49.7568V15.1978L54.1249 14.7456V20.9931H65.7163Z" fill="url(#paint3_linear_144_1325)"/>
<path d="M68.3618 22.4815H75.6861C78.4419 22.4815 80.7939 22.019 82.7421 21.0923C84.7129 20.1672 86.1926 18.8774 87.1776 17.2244C88.1862 15.549 88.6893 13.6217 88.6893 11.4394C88.6893 11.3459 88.6875 11.2526 88.6858 11.1606L83.6477 11.6825C83.6356 13.5758 83.2891 15.2363 82.6081 16.6625C81.936 18.1169 80.9838 19.2303 79.7513 20.0012C78.5428 20.7737 77.1536 21.1591 75.5852 21.1591H74.9809C74.6901 21.1591 74.3873 21.1487 74.0739 21.1265C73.759 21.1043 73.3115 21.0375 72.7298 20.9278V13.0598L68.3739 13.5106L68.3618 22.4815ZM68.3739 10.8464L72.7298 10.4772V2.21486C73.759 2.06067 74.6901 1.98358 75.5188 1.98358C77.1084 1.98358 78.5202 2.38091 79.7513 3.17408C80.9838 3.96726 81.936 5.09104 82.6081 6.54544C83.0631 7.4839 83.3689 8.52763 83.5241 9.67366L88.5081 9.25109C88.0952 6.8716 86.9682 4.95613 85.1273 3.50469C82.7753 1.6085 79.3369 0.661133 74.8122 0.661133H65.6738V1.65297H66.0098C66.95 1.65297 67.5768 1.92872 67.8917 2.47876C68.2051 3.00804 68.3618 3.83531 68.3618 4.95909" fill="url(#paint4_linear_144_1325)"/>
<path d="M101.502 8.14958L105.871 7.78041V2.21486C106.677 2.06067 107.405 1.98358 108.053 1.98358C109.286 1.98358 110.317 2.38091 111.145 3.17408C111.997 3.96726 112.422 5.2897 112.422 7.14143V7.22593L117.116 6.82712C117.007 4.44761 116.069 2.84347 114.304 2.0162C112.444 1.11332 110.362 0.661133 108.053 0.661133H98.8145V1.65297H99.1501C100.091 1.65297 100.718 1.92872 101.033 2.47876C101.346 3.00804 101.502 3.83531 101.502 4.95909V8.14958ZM111.145 11.1414C110.294 11.9345 109.208 12.3319 107.886 12.3319H105.871V9.37863L101.502 9.83078V22.4815H105.871V13.6543H109.062C110.07 13.6543 111.179 13.5001 112.388 13.1918C113.599 12.8834 114.685 12.2548 115.648 11.3075C116.452 10.5335 116.929 9.50317 117.074 8.21629L112.301 8.71143C112.121 9.78192 111.736 10.5914 111.145 11.1414Z" fill="url(#paint5_linear_144_1325)"/>
<path d="M139.798 5.8591L135.755 6.27867C136.219 7.73751 136.451 9.50177 136.451 11.5714C136.451 14.7886 135.89 17.2808 134.771 19.0436C133.652 20.7841 132.073 21.6559 130.034 21.6559C127.996 21.6559 126.416 20.7841 125.295 19.0436C124.199 17.2808 123.65 14.7886 123.65 11.5714C123.65 10.0488 123.774 8.68929 124.019 7.49585L119.422 7.97324C119.104 9.1044 118.946 10.3038 118.946 11.5714C118.946 13.7315 119.406 15.693 120.323 17.4557C121.243 19.22 122.541 20.6077 124.221 21.6218C125.923 22.6359 127.862 23.1429 130.034 23.1429C132.207 23.1429 134.132 22.6359 135.812 21.6218C137.492 20.6077 138.793 19.22 139.71 17.4557C140.63 15.693 141.087 13.7315 141.087 11.5714C141.087 9.48103 140.658 7.57739 139.798 5.8591ZM125.295 4.13191C126.416 2.36914 127.996 1.48701 130.034 1.48701C132.073 1.48701 133.652 2.36914 134.771 4.13191C134.998 4.48476 135.201 4.86726 135.381 5.2809L139.289 4.95029C138.412 3.53147 137.251 2.38989 135.812 1.52111C134.132 0.507038 132.207 0 130.034 0C127.862 0 125.923 0.507038 124.221 1.52111C122.541 2.53519 121.243 3.92287 120.323 5.68713C120.17 5.98215 120.028 6.2846 119.901 6.59149L124.351 6.21492C124.599 5.43064 124.914 4.73679 125.295 4.13191Z" fill="url(#paint6_linear_144_1325)"/>
<path d="M149.366 4.09624L144.998 4.4654V0.661133H149.366V4.09624Z" fill="url(#paint7_linear_144_1325)"/>
<path d="M152.054 21.4902V22.482H148.022C147.216 22.482 146.6 22.3605 146.175 22.1188C145.749 21.8534 145.448 21.4235 145.268 20.829C145.089 20.2122 144.998 19.3301 144.998 18.1841V5.32134L149.366 4.86768V18.1841C149.366 19.3079 149.524 20.1456 149.837 20.697C150.15 21.2263 150.779 21.4902 151.719 21.4902H152.054Z" fill="url(#paint8_linear_144_1325)"/>
<path d="M160.519 3.15184L155.715 3.55807C155.602 3.12219 155.408 2.75156 155.136 2.44615C154.689 1.91687 153.916 1.65297 152.819 1.65297H152.65V0.661133H155.002C156.257 0.661133 157.275 0.825698 158.059 1.15631C158.867 1.46617 159.539 1.96135 160.076 2.64481L160.519 3.15184Z" fill="url(#paint9_linear_144_1325)"/>
<path d="M173.315 0.661133V2.06809L171.635 2.21041V0.661133H173.315Z" fill="url(#paint10_linear_144_1325)"/>
<path d="M171.635 2.55725L173.315 2.38379V22.5808H171.769L157.523 6.11541V22.4814H155.843V4.6284C155.843 4.47865 155.837 4.33484 155.825 4.19696L160.966 3.66473H160.968L171.635 15.8692V2.55725Z" fill="url(#paint11_linear_144_1325)"/>
<path d="M179.208 0.661133H189.922L176.7 1.78047C177.135 1.03474 177.969 0.661133 179.208 0.661133Z" fill="url(#paint12_linear_144_1325)"/>
<path d="M195 0.661133V2.14814H187.978V22.4815H183.609V2.14814H181.225C179.969 2.14814 179.007 2.458 178.334 3.07475C177.685 3.6915 177.359 4.70558 177.359 6.1155H176.352V3.30603C176.352 2.81827 176.424 2.3987 176.57 2.04585L189.923 0.661133H195Z" fill="url(#paint13_linear_144_1325)"/>
</g>
<defs>
<filter id="filter0_d_144_1325" x="-3" y="-3" width="202" height="31.1431" filterUnits="userSpaceOnUse" color-interpolation-filters="sRGB">
<feFlood flood-opacity="0" result="BackgroundImageFix"/>
<feColorMatrix in="SourceAlpha" type="matrix" values="0 0 0 0 0 0 0 0 0 0 0 0 0 0 0 0 0 0 127 0" result="hardAlpha"/>
<feOffset dy="1"/>
<feGaussianBlur stdDeviation="2"/>
<feColorMatrix type="matrix" values="0 0 0 0 0.358333 0 0 0 0 0.256959 0 0 0 0 0.103021 0 0 0 1 0"/>
<feBlend mode="normal" in2="BackgroundImageFix" result="effect1_dropShadow_144_1325"/>
<feBlend mode="normal" in="SourceGraphic" in2="effect1_dropShadow_144_1325" result="shape"/>
</filter>
<linearGradient id="paint0_linear_144_1325" x1="10.9151" y1="1.73563" x2="10.9151" y2="23.1428" gradientUnits="userSpaceOnUse">
<stop stop-color="#C09645"/>
<stop offset="0.5" stop-color="#FFC977"/>
<stop offset="1" stop-color="#C09645"/>
</linearGradient>
<linearGradient id="paint1_linear_144_1325" x1="34.4328" y1="1.73571" x2="34.4328" y2="23.1429" gradientUnits="userSpaceOnUse">
<stop stop-color="#C09645"/>
<stop offset="0.5" stop-color="#FFC977"/>
<stop offset="1" stop-color="#C09645"/>
</linearGradient>
<linearGradient id="paint2_linear_144_1325" x1="50.5964" y1="11.9489" x2="50.5964" y2="0.301374" gradientUnits="userSpaceOnUse">
<stop stop-color="#C09645"/>
<stop offset="0.5" stop-color="#FFC977"/>
<stop offset="1" stop-color="#C09645"/>
</linearGradient>
<linearGradient id="paint3_linear_144_1325" x1="57.7365" y1="22.1007" x2="57.7365" y2="14.5112" gradientUnits="userSpaceOnUse">
<stop stop-color="#C09645"/>
<stop offset="0.5" stop-color="#FFC977"/>
<stop offset="1" stop-color="#C09645"/>
</linearGradient>
<linearGradient id="paint4_linear_144_1325" x1="77.1815" y1="1.73563" x2="77.1815" y2="23.1428" gradientUnits="userSpaceOnUse">
<stop stop-color="#C09645"/>
<stop offset="0.5" stop-color="#FFC977"/>
<stop offset="1" stop-color="#C09645"/>
</linearGradient>
<linearGradient id="paint5_linear_144_1325" x1="107.965" y1="1.73563" x2="107.965" y2="23.1428" gradientUnits="userSpaceOnUse">
<stop stop-color="#C09645"/>
<stop offset="0.5" stop-color="#FFC977"/>
<stop offset="1" stop-color="#C09645"/>
</linearGradient>
<linearGradient id="paint6_linear_144_1325" x1="130.017" y1="1.73571" x2="130.017" y2="23.1429" gradientUnits="userSpaceOnUse">
<stop stop-color="#C09645"/>
<stop offset="0.5" stop-color="#FFC977"/>
<stop offset="1" stop-color="#C09645"/>
</linearGradient>
<linearGradient id="paint7_linear_144_1325" x1="147.183" y1="4.27806" x2="147.183" y2="0.545849" gradientUnits="userSpaceOnUse">
<stop stop-color="#C09645"/>
<stop offset="0.5" stop-color="#FFC977"/>
<stop offset="1" stop-color="#C09645"/>
</linearGradient>
<linearGradient id="paint8_linear_144_1325" x1="148.526" y1="21.6147" x2="148.526" y2="4.33391" gradientUnits="userSpaceOnUse">
<stop stop-color="#C09645"/>
<stop offset="0.5" stop-color="#FFC977"/>
<stop offset="1" stop-color="#C09645"/>
</linearGradient>
<linearGradient id="paint9_linear_144_1325" x1="156.584" y1="3.41606" x2="156.584" y2="0.586856" gradientUnits="userSpaceOnUse">
<stop stop-color="#C09645"/>
<stop offset="0.5" stop-color="#FFC977"/>
<stop offset="1" stop-color="#C09645"/>
</linearGradient>
<linearGradient id="paint10_linear_144_1325" x1="172.474" y1="2.13448" x2="172.474" y2="0.621415" gradientUnits="userSpaceOnUse">
<stop stop-color="#C09645"/>
<stop offset="0.5" stop-color="#FFC977"/>
<stop offset="1" stop-color="#C09645"/>
</linearGradient>
<linearGradient id="paint11_linear_144_1325" x1="164.57" y1="21.5907" x2="164.57" y2="1.86591" gradientUnits="userSpaceOnUse">
<stop stop-color="#C09645"/>
<stop offset="0.5" stop-color="#FFC977"/>
<stop offset="1" stop-color="#C09645"/>
</linearGradient>
<linearGradient id="paint12_linear_144_1325" x1="183.311" y1="1.72535" x2="183.311" y2="0.627212" gradientUnits="userSpaceOnUse">
<stop stop-color="#C09645"/>
<stop offset="0.5" stop-color="#FFC977"/>
<stop offset="1" stop-color="#C09645"/>
</linearGradient>
<linearGradient id="paint13_linear_144_1325" x1="185.676" y1="21.4071" x2="185.676" y2="-8.87321e-05" gradientUnits="userSpaceOnUse">
<stop stop-color="#C09645"/>
<stop offset="0.5" stop-color="#FFC977"/>
<stop offset="1" stop-color="#C09645"/>
</linearGradient>
</defs>
</svg>

<svg width="199" height="24" fill="none" xmlns="http://www.w3.org/2000/svg"><g filter="url(#a)"><path d="m3.688 16.436 4.368-.371v-4.031h2.52c3.258 0 5.124 1.115 5.59 3.345l4.664-.396c-.527-2.205-2.367-3.464-5.517-3.775 1.478-.375 2.621-1.004 3.427-1.884.83-.905 1.243-1.864 1.243-2.878 0-2.314-.952-3.856-2.855-4.628C15.246 1.047 12.894.66 10.072.66H1v.992h.336c.94 0 1.567.276 1.88.826.314.529.472 1.356.472 2.48v11.477ZM8.056 2.215c.761-.154 1.433-.231 2.016-.231 1.478 0 2.71.34 3.696 1.024 1.008.661 1.511 1.752 1.511 3.274 0 1.498-.425 2.59-1.276 3.273-.829.661-1.972.992-3.428.992H8.056V2.215Zm6.753 17.754c-.963.793-2.374 1.19-4.234 1.19-.896 0-1.735-.11-2.519-.33v-1.307l-4.368.454v2.506h7.392c2.889 0 5.263-.43 7.122-1.29 1.335-.632 2.19-1.628 2.568-2.988l-4.94.513c-.243.482-.584.9-1.02 1.252Z" fill="url(#b)"/><path d="M44.127 5.687c-.919-1.764-2.218-3.152-3.898-4.166C38.55.507 36.622 0 34.45 0c-2.172 0-4.11.507-5.813 1.521a10.344 10.344 0 0 0-3.896 4.166c-.92 1.763-1.379 3.724-1.379 5.884 0 1.108.12 2.164.365 3.167l4.5-.38a22.58 22.58 0 0 1-.16-2.787c0-3.218.55-5.697 1.646-7.44 1.12-1.762 2.699-2.644 4.737-2.644 2.039 0 3.618.882 4.74 2.645 1.119 1.742 1.68 4.22 1.68 7.44 0 .598-.02 1.17-.058 1.72l4.633-.394c.04-.433.06-.876.06-1.327 0-2.16-.46-4.121-1.377-5.884Zm-4.939 13.357c-1.121 1.74-2.7 2.612-4.739 2.612-2.038 0-3.617-.872-4.737-2.612a8.884 8.884 0 0 1-.803-1.683l-3.997.413a10.316 10.316 0 0 0 3.724 3.848c1.703 1.014 3.64 1.52 5.813 1.52 2.173 0 4.1-.506 5.78-1.52 1.68-1.014 2.979-2.402 3.898-4.166.292-.564.54-1.146.738-1.751l-4.494.467c-.277 1.109-.67 2.066-1.183 2.872Z" fill="url(#c)"/><path d="M49.756 4.96c0-1.125-.156-1.952-.47-2.481-.313-.55-.941-.826-1.882-.826h-.336V.661H51.1c.806 0 1.423.132 1.848.397.426.264.729.705.907 1.323.18.594.27 1.454.27 2.578v7.204l-4.369.37V4.96Z" fill="url(#d)"/><path d="M65.716 20.993v1.489h-15.96v-7.284l4.369-.452v6.247h11.591Z" fill="url(#e)"/><path d="M68.362 22.482h7.324c2.756 0 5.108-.463 7.056-1.39 1.97-.925 3.45-2.215 4.436-3.868 1.008-1.675 1.511-3.602 1.511-5.785 0-.093-.001-.186-.003-.278l-5.038.521c-.012 1.894-.359 3.554-1.04 4.98-.672 1.455-1.624 2.568-2.857 3.34-1.208.772-2.597 1.157-4.166 1.157h-.604c-.29 0-.594-.01-.907-.032a12.65 12.65 0 0 1-1.344-.2V13.06l-4.356.45-.012 8.972Zm.012-11.636 4.356-.369V2.215c1.029-.154 1.96-.231 2.789-.231 1.59 0 3.001.397 4.232 1.19 1.233.793 2.185 1.917 2.857 3.371.455.939.76 1.983.916 3.129l4.984-.423c-.413-2.38-1.54-4.295-3.38-5.746C82.774 1.609 79.336.66 74.811.66h-9.138v.992h.336c.94 0 1.567.276 1.882.826.313.529.47 1.356.47 2.48" fill="url(#f)"/><path d="m101.502 8.15 4.369-.37V2.215a11.727 11.727 0 0 1 2.182-.231c1.233 0 2.264.397 3.092 1.19.852.793 1.277 2.116 1.277 3.967v.085l4.694-.399c-.109-2.38-1.047-3.984-2.812-4.81-1.86-.904-3.942-1.356-6.251-1.356h-9.239v.992h.336c.941 0 1.568.276 1.883.826.313.529.469 1.356.469 2.48v3.19Zm9.643 2.991c-.851.793-1.937 1.19-3.259 1.19h-2.015V9.38l-4.369.452v12.65h4.369v-8.827h3.191c1.008 0 2.117-.154 3.326-.462 1.211-.309 2.297-.937 3.26-1.885.804-.774 1.281-1.804 1.426-3.09l-4.773.494c-.18 1.07-.565 1.88-1.156 2.43Z" fill="url(#g)"/><path d="m139.798 5.86-4.043.419c.464 1.459.696 3.223.696 5.292 0 3.218-.561 5.71-1.68 7.473-1.119 1.74-2.698 2.612-4.737 2.612-2.038 0-3.618-.872-4.739-2.612-1.096-1.763-1.645-4.255-1.645-7.473 0-1.522.124-2.882.369-4.075l-4.597.477a13.238 13.238 0 0 0-.476 3.598c0 2.16.46 4.122 1.377 5.885.92 1.764 2.218 3.152 3.898 4.166 1.702 1.014 3.641 1.52 5.813 1.52 2.173 0 4.098-.506 5.778-1.52a10.344 10.344 0 0 0 3.898-4.166c.92-1.763 1.377-3.724 1.377-5.885 0-2.09-.429-3.994-1.289-5.712Zm-14.503-1.728c1.121-1.763 2.701-2.645 4.739-2.645 2.039 0 3.618.882 4.737 2.645.227.353.43.735.61 1.149l3.908-.33a10.258 10.258 0 0 0-3.477-3.43C134.132.507 132.207 0 130.034 0c-2.172 0-4.111.507-5.813 1.521-1.68 1.014-2.978 2.402-3.898 4.166-.153.295-.295.598-.422.904l4.45-.376a8.957 8.957 0 0 1 .944-2.083Z" fill="url(#h)"/><path d="m149.366 4.096-4.368.37V.66h4.368v3.435Z" fill="url(#i)"/><path d="M152.054 21.49v.992h-4.032c-.806 0-1.422-.122-1.847-.363-.426-.266-.727-.695-.907-1.29-.179-.617-.27-1.499-.27-2.645V5.321l4.368-.453v13.316c0 1.124.158 1.962.471 2.513.313.53.942.793 1.882.793h.335Z" fill="url(#j)"/><path d="m160.519 3.152-4.804.406a2.639 2.639 0 0 0-.579-1.112c-.447-.53-1.22-.793-2.317-.793h-.169V.661h2.352c1.255 0 2.273.165 3.057.495.808.31 1.48.805 2.017 1.489l.443.507Z" fill="url(#k)"/><path d="M173.315.661v1.407l-1.68.142V.661h1.68Z" fill="url(#l)"/><path d="m171.635 2.557 1.68-.173V22.58h-1.546L157.523 6.115v16.366h-1.68V4.628c0-.15-.006-.293-.018-.431l5.141-.532h.002l10.667 12.204V2.557Z" fill="url(#m)"/><path d="M179.208.661h10.714L176.7 1.781c.435-.746 1.269-1.12 2.508-1.12Z" fill="url(#n)"/><path d="M195 .661v1.487h-7.022v20.334h-4.369V2.148h-2.384c-1.256 0-2.218.31-2.891.927-.649.616-.975 1.63-.975 3.04h-1.007V3.306c0-.488.072-.907.218-1.26L189.923.66H195Z" fill="url(#o)"/></g><defs><linearGradient id="b" x1="10.915" y1="1.736" x2="10.915" y2="23.143" gradientUnits="userSpaceOnUse"><stop stop-color="#C09645"/><stop offset=".5" stop-color="#FFC977"/><stop offset="1" stop-color="#C09645"/></linearGradient><linearGradient id="c" x1="34.433" y1="1.736" x2="34.433" y2="23.143" gradientUnits="userSpaceOnUse"><stop stop-color="#C09645"/><stop offset=".5" stop-color="#FFC977"/><stop offset="1" stop-color="#C09645"/></linearGradient><linearGradient id="d" x1="50.596" y1="11.949" x2="50.596" y2=".301" gradientUnits="userSpaceOnUse"><stop stop-color="#C09645"/><stop offset=".5" stop-color="#FFC977"/><stop offset="1" stop-color="#C09645"/></linearGradient><linearGradient id="e" x1="57.736" y1="22.101" x2="57.736" y2="14.511" gradientUnits="userSpaceOnUse"><stop stop-color="#C09645"/><stop offset=".5" stop-color="#FFC977"/><stop offset="1" stop-color="#C09645"/></linearGradient><linearGradient id="f" x1="77.181" y1="1.736" x2="77.181" y2="23.143" gradientUnits="userSpaceOnUse"><stop stop-color="#C09645"/><stop offset=".5" stop-color="#FFC977"/><stop offset="1" stop-color="#C09645"/></linearGradient><linearGradient id="g" x1="107.965" y1="1.736" x2="107.965" y2="23.143" gradientUnits="userSpaceOnUse"><stop stop-color="#C09645"/><stop offset=".5" stop-color="#FFC977"/><stop offset="1" stop-color="#C09645"/></linearGradient><linearGradient id="h" x1="130.017" y1="1.736" x2="130.017" y2="23.143" gradientUnits="userSpaceOnUse"><stop stop-color="#C09645"/><stop offset=".5" stop-color="#FFC977"/><stop offset="1" stop-color="#C09645"/></linearGradient><linearGradient id="i" x1="147.183" y1="4.278" x2="147.183" y2=".546" gradientUnits="userSpaceOnUse"><stop stop-color="#C09645"/><stop offset=".5" stop-color="#FFC977"/><stop offset="1" stop-color="#C09645"/></linearGradient><linearGradient id="j" x1="148.526" y1="21.615" x2="148.526" y2="4.334" gradientUnits="userSpaceOnUse"><stop stop-color="#C09645"/><stop offset=".5" stop-color="#FFC977"/><stop offset="1" stop-color="#C09645"/></linearGradient><linearGradient id="k" x1="156.584" y1="3.416" x2="156.584" y2=".587" gradientUnits="userSpaceOnUse"><stop stop-color="#C09645"/><stop offset=".5" stop-color="#FFC977"/><stop offset="1" stop-color="#C09645"/></linearGradient><linearGradient id="l" x1="172.474" y1="2.134" x2="172.474" y2=".621" gradientUnits="userSpaceOnUse"><stop stop-color="#C09645"/><stop offset=".5" stop-color="#FFC977"/><stop offset="1" stop-color="#C09645"/></linearGradient><linearGradient id="m" x1="164.57" y1="21.591" x2="164.57" y2="1.866" gradientUnits="userSpaceOnUse"><stop stop-color="#C09645"/><stop offset=".5" stop-color="#FFC977"/><stop offset="1" stop-color="#C09645"/></linearGradient><linearGradient id="n" x1="183.311" y1="1.725" x2="183.311" y2=".627" gradientUnits="userSpaceOnUse"><stop stop-color="#C09645"/><stop offset=".5" stop-color="#FFC977"/><stop offset="1" stop-color="#C09645"/></linearGradient><linearGradient id="o" x1="185.676" y1="21.407" x2="185.676" y2="0" gradientUnits="userSpaceOnUse"><stop stop-color="#C09645"/><stop offset=".5" stop-color="#FFC977"/><stop offset="1" stop-color="#C09645"/></linearGradient><filter id="a" x="-3" y="-3" width="202" height="31.143" filterUnits="userSpaceOnUse" color-interpolation-filters="sRGB"><feFlood flood-opacity="0" result="BackgroundImageFix"/><feColorMatrix in="SourceAlpha" values="0 0 0 0 0 0 0 0 0 0 0 0 0 0 0 0 0 0 127 0" result="hardAlpha"/><feOffset dy="1"/><feGaussianBlur stdDeviation="2"/><feColorMatrix values="0 0 0 0 0.358333 0 0 0 0 0.256959 0 0 0 0 0.103021 0 0 0 1 0"/><feBlend in2="BackgroundImageFix" result="effect1_dropShadow_144_1325"/><feBlend in="SourceGraphic" in2="effect1_dropShadow_144_1325" result="shape"/></filter></defs></svg>
